assets/images/core-data-icon.svg

<svg xmlns="http://www.w3.org/2000/svg" width="40" height="40" viewBox="0 0 40 40">
  <g fill="none" fill-rule="evenodd">
    <path fill="#B68BFC" fill-rule="nonzero" d="M40,9.93630573 C40,9.08704883 39.9150743,8.15286624 39.7452229,7.30360934 C39.5753715,6.45435244 39.3205945,5.60509554 38.895966,4.75583864 C38.4713376,3.99150743 37.9617834,3.22717622 37.3673036,2.63269639 C36.7728238,2.03821656 36.0084926,1.44373673 35.2441614,1.10403397 C34.4798301,0.67940552 33.6305732,0.42462845 32.7813163,0.25477707 C31.9320594,0.08492569 30.9978769,0.08492569 30.14862,0 L28.9596603,0 L27.5159236,0 L16.9002123,0 L12.4840764,0 L11.0403397,0 L9.85138004,0 L9.17197452,0 C8.492569,0 7.81316348,0.08492569 7.21868365,0.16985138 C6.53927813,0.25477707 5.9447983,0.42462845 5.35031847,0.67940552 C5.18046709,0.76433121 4.92569002,0.8492569 4.75583864,0.93418259 C4.16135881,1.27388535 3.65180467,1.61358811 3.14225053,2.03821656 C2.97239915,2.20806794 2.80254777,2.29299363 2.63269639,2.46284501 C2.03821656,3.05732484 1.44373673,3.82165605 1.10403397,4.58598726 C0.67940552,5.35031847 0.42462845,6.19957537 0.25477707,7.13375796 C0.08492569,7.98301486 0.08492569,8.91719745 0,9.76645435 L0,10.955414 L0,12.3991507 L0,18.9384289 L0,27.4309979 L0,28.8747346 L0,30.0636943 C0,30.9129512 0.08492569,31.8471338 0.25477707,32.6963907 C0.42462845,33.5456476 0.67940552,34.3949045 1.10403397,35.2441614 C1.52866242,36.0084926 2.03821656,36.7728238 2.63269639,37.3673036 C3.22717622,37.9617834 3.99150743,38.5562633 4.75583864,38.895966 C5.52016985,39.3205945 6.36942675,39.5753715 7.21868365,39.7452229 C8.06794055,39.9150743 9.00212314,39.9150743 9.85138004,40 L11.0403397,40 L12.4840764,40 L27.5159236,40 L28.9596603,40 L30.14862,40 C30.9978769,40 31.9320594,39.9150743 32.7813163,39.7452229 C33.6305732,39.5753715 34.4798301,39.3205945 35.2441614,38.895966 C36.0084926,38.4713376 36.7728238,37.9617834 37.3673036,37.3673036 C37.9617834,36.7728238 38.5562633,36.0084926 38.895966,35.2441614 C39.3205945,34.4798301 39.5753715,33.6305732 39.7452229,32.6963907 C39.9150743,31.8471338 39.9150743,30.9129512 40,30.0636943 L40,28.8747346 L40,27.4309979 L40,12.3991507 L40,11.1252654 L40,9.93630573 L40,9.93630573 Z"/>
    <path fill="#FFF" d="M20,33 C27.1797017,33 33,27.1797017 33,20 C33,12.8202983 27.1797017,7 20,7 C12.8202983,7 7,12.8202983 7,20 L20,20 L20,33 Z"/>
  </g>
</svg>

<svg xmlns="http://www.w3.org/2000/svg" width="40" height="40" viewBox="0 0 40 40"><g fill="none" fill-rule="evenodd"><path fill="#9060C1" fill-rule="nonzero" d="M40 9.936c0-.849-.085-1.783-.255-2.632a9.987 9.987 0 0 0-.849-2.548c-.425-.764-.934-1.529-1.529-2.123-.594-.595-1.359-1.19-2.123-1.529-.764-.425-1.613-.68-2.463-.85-.849-.17-1.783-.17-2.632-.254H9.172c-.68 0-1.359.085-1.953.17A6.747 6.747 0 0 0 5.35.68c-.17.084-.424.17-.594.254-.595.34-1.104.68-1.614 1.104-.17.17-.34.255-.51.425-.594.594-1.188 1.359-1.528 2.123C.679 5.35.424 6.2.254 7.134.085 7.983.085 8.917 0 9.766v20.298c0 .849.085 1.783.255 2.632.17.85.424 1.699.849 2.548.425.764.934 1.529 1.529 2.123.594.595 1.359 1.19 2.123 1.529.764.425 1.613.68 2.463.85.849.17 1.783.17 2.632.254H30.15c.849 0 1.783-.085 2.632-.255.85-.17 1.699-.424 2.463-.849s1.529-.934 2.123-1.529c.595-.594 1.19-1.359 1.529-2.123.425-.764.68-1.613.85-2.548.17-.849.17-1.783.254-2.632V9.936z"/><path fill="#FFF" d="M20 33c7.18 0 13-5.82 13-13S27.18 7 20 7 7 12.82 7 20h13v13z"/></g></svg>
